lib/shared/assets/svg/unknown.svg

<?xml version="1.0" encoding="UTF-8" standalone="no"?>
<svg
   width="452.009pt"
   height="728.11469pt"
   viewBox="0 0 452.009 728.11469"
   version="1.1"
   id="svg15"
   sodipodi:docname="unknown.svg"
   inkscape:version="1.4.2 (f4327f4, 2025-05-13)"
   xmlns:inkscape="http://www.inkscape.org/namespaces/inkscape"
   xmlns:sodipodi="http://sodipodi.sourceforge.net/DTD/sodipodi-0.dtd"
   xmlns="http://www.w3.org/2000/svg"
   xmlns:svg="http://www.w3.org/2000/svg">
  <defs
     id="defs15" />
  <sodipodi:namedview
     id="namedview15"
     pagecolor="#ffffff"
     bordercolor="#000000"
     borderopacity="0.25"
     inkscape:showpageshadow="2"
     inkscape:pageopacity="0.0"
     inkscape:pagecheckerboard="0"
     inkscape:deskcolor="#d1d1d1"
     inkscape:document-units="pt"
     inkscape:zoom="0.40033707"
     inkscape:cx="-12.489476"
     inkscape:cy="330.9711"
     inkscape:window-width="1920"
     inkscape:window-height="991"
     inkscape:window-x="-9"
     inkscape:window-y="-9"
     inkscape:window-maximized="1"
     inkscape:current-layer="svg15" />
  <g
     id="#000000fe"
     transform="translate(-280.011,-131.91115)">
    <path
       fill="#000000"
       opacity="1"
       d="m 391.98,159.01 c 46.72,-24.5 101.44,-31.5 153.38,-24.56 41.84,5.55 82.37,22.23 115.01,49.15 41.48,33.15 70.11,83.76 71.65,137.41 -0.07,5.99 -0.08,11.99 -0.01,17.99 -0.2,35.02 -14.27,68.64 -33.77,97.22 -16.75,23.25 -36.74,43.95 -58.23,62.79 -14.13,12.86 -29.11,24.81 -42.25,38.75 -9.89,9.04 -18.09,19.95 -24.05,31.96 -9.5,21.68 -10.14,46.02 -9.69,69.29 1.43,10.12 -8.18,18.71 -18.01,17.95 -25.34,0.11 -50.69,-0.01 -76.03,0.06 -7.14,-0.55 -14.15,-5.15 -15.38,-12.68 -1.38,-15.02 -0.23,-30.25 -0.6,-45.34 -0.78,-22.4 2.53,-45.16 11.08,-65.94 15.21,-36.46 43.4,-65.59 72.25,-91.7 25.41,-21.49 52.41,-43.42 66.69,-74.35 5.23,-9.84 7.85,-20.76 9.29,-31.75 0.59,-4.13 1.17,-8.46 0.11,-12.55 -1.59,-29.47 -21.14,-55.61 -46.49,-69.6 -14.21,-8.32 -30.33,-12.88 -46.67,-14.4 -3.43,-0.52 -6.82,-0.82 -10.27,-0.75 h -1 c -3.14,0 -6.25,-0.16 -9.29,0.61 -17.47,1.15 -34.45,6.87 -49.63,15.49 -20.92,12.2 -37.11,32.09 -45.11,54.92 -4.2,10.71 -6.42,22.03 -10.25,32.86 -2.18,5.24 -6.75,10.39 -12.86,10.21 -1.67,0 -5.02,0 -6.69,0 -26.13,-1.58 -52.06,-5.95 -78.18,-7.94 -4.46,-0.14 -8.82,-2.12 -12.32,-4.77 -3.05,-3.98 -5.21,-9.16 -4.52,-14.27 5.81,-24.86 11.99,-49.86 22.85,-73.08 8.75,-16.6 18.46,-32.9 31.25,-46.75 15.57,-19.47 36.56,-33.51 57.74,-46.23 z"
       id="path6" />
    <path
       fill="#000000"
       opacity="1"
       d="m 459.69,729.69 c 8.36,-9.04 21.17,-13.24 33.3,-12.71 13.34,0.07 26.68,-0.08 40.02,0.06 20.76,0.28 41.05,17.5 41.02,38.96 -0.08,21 -0.01,42.01 -0.03,63.02 -0.28,22.27 -20.9,41.39 -42.99,41 -13.34,-0.03 -26.69,-0.03 -40.02,0 -20.71,0.2 -41.03,-16.86 -42.02,-38.02 -0.31,-17.08 0.85,-34.23 -0.68,-51.25 -1.97,-14.47 0.67,-30.45 11.4,-41.06 z"
       id="path7" />
  </g>
</svg>

<?xml version="1.0" encoding="UTF-8" ?>
<!DOCTYPE svg PUBLIC "-//W3C//DTD SVG 1.1//EN" "http://www.w3.org/Graphics/SVG/1.1/DTD/svg11.dtd">
<svg width="1024pt" height="1024pt" viewBox="0 0 1024 1024" version="1.1" xmlns="http://www.w3.org/2000/svg">
<g id="#1d1d1d2a">
<path fill="#1d1d1d" opacity="0.16" d=" M 0.00 0.00 L 105.02 0.00 L 104.99 0.99 C 70.33 1.02 35.66 0.98 1.00 1.01 L 0.00 0.99 L 0.00 0.00 Z" />
</g>
<g id="#16161626">
<path fill="#161616" opacity="0.15" d=" M 105.02 0.00 L 343.03 0.00 L 342.98 0.99 C 263.65 1.01 184.32 1.01 104.99 0.99 L 105.02 0.00 Z" />
</g>
<g id="#10101022">
<path fill="#101010" opacity="0.13" d=" M 343.03 0.00 L 877.03 0.00 L 876.98 0.99 C 698.98 1.01 520.98 1.01 342.98 0.99 L 343.03 0.00 Z" />
</g>
<g id="#18181825">
<path fill="#181818" opacity="0.15" d=" M 877.03 0.00 L 1024.00 0.00 L 1024.00 0.97 L 1023.00 1.01 L 1022.00 1.02 C 973.66 0.96 925.32 1.03 876.98 0.99 L 877.03 0.00 Z" />
</g>
<g id="#1313131c">
<path fill="#131313" opacity="0.11" d=" M 0.00 0.99 L 1.00 1.01 C 1.00 342.01 1.00 683.00 1.00 1024.00 L 0.00 1024.00 L 0.00 0.99 Z" />
</g>
<g id="#000000fe">
<path fill="#000000" opacity="1.00" d=" M 391.98 159.01 C 438.70 134.51 493.42 127.51 545.36 134.45 C 587.20 140.00 627.73 156.68 660.37 183.60 C 701.85 216.75 730.48 267.36 732.02 321.01 C 731.95 327.00 731.94 333.00 732.01 339.00 C 731.81 374.02 717.74 407.64 698.24 436.22 C 681.49 459.47 661.50 480.17 640.01 499.01 C 625.88 511.87 610.90 523.82 597.76 537.76 C 587.87 546.80 579.67 557.71 573.71 569.72 C 564.21 591.40 563.57 615.74 564.02 639.01 C 565.45 649.13 555.84 657.72 546.01 656.96 C 520.67 657.07 495.32 656.95 469.98 657.02 C 462.84 656.47 455.83 651.87 454.60 644.34 C 453.22 629.32 454.37 614.09 454.00 599.00 C 453.22 576.60 456.53 553.84 465.08 533.06 C 480.29 496.60 508.48 467.47 537.33 441.36 C 562.74 419.87 589.74 397.94 604.02 367.01 C 609.25 357.17 611.87 346.25 613.31 335.26 C 613.90 331.13 614.48 326.80 613.42 322.71 C 611.83 293.24 592.28 267.10 566.93 253.11 C 552.72 244.79 536.60 240.23 520.26 238.71 C 516.83 238.19 513.44 237.89 509.99 237.96 L 508.99 237.96 C 505.85 237.96 502.74 237.80 499.70 238.57 C 482.23 239.72 465.25 245.44 450.07 254.06 C 429.15 266.26 412.96 286.15 404.96 308.98 C 400.76 319.69 398.54 331.01 394.71 341.84 C 392.53 347.08 387.96 352.23 381.85 352.05 C 380.18 352.05 376.83 352.05 375.16 352.05 C 349.03 350.47 323.10 346.10 296.98 344.11 C 292.52 343.97 288.16 341.99 284.66 339.34 C 281.61 335.36 279.45 330.18 280.14 325.07 C 285.95 300.21 292.13 275.21 302.99 251.99 C 311.74 235.39 321.45 219.09 334.24 205.24 C 349.81 185.77 370.80 171.73 391.98 159.01 Z" />
<path fill="#000000" opacity="1.00" d=" M 459.69 729.69 C 468.05 720.65 480.86 716.45 492.99 716.98 C 506.33 717.05 519.67 716.90 533.01 717.04 C 553.77 717.32 574.06 734.54 574.03 756.00 C 573.95 777.00 574.02 798.01 574.00 819.02 C 573.72 841.29 553.10 860.41 531.01 860.02 C 517.67 859.99 504.32 859.99 490.99 860.02 C 470.28 860.22 449.96 843.16 448.97 822.00 C 448.66 804.92 449.82 787.77 448.29 770.75 C 446.32 756.28 448.96 740.30 459.69 729.69 Z" />
</g>
<g id="#02020249">
<path fill="#020202" opacity="0.29" d=" M 499.70 238.57 C 502.74 237.80 505.85 237.96 508.99 237.96 C 508.89 241.24 502.13 238.37 499.70 238.57 Z" />
</g>
<g id="#0202025a">
<path fill="#020202" opacity="0.35" d=" M 509.99 237.96 C 513.44 237.89 516.83 238.19 520.26 238.71 C 516.81 238.89 513.44 239.14 510.01 238.96 L 509.99 237.96 Z" />
</g>
<g id="#0404045f">
<path fill="#040404" opacity="0.37" d=" M 732.02 321.01 L 732.98 321.00 C 732.97 326.98 733.16 332.98 732.96 338.97 L 732.01 339.00 C 731.94 333.00 731.95 327.00 732.02 321.01 Z" />
</g>
<g id="#0302029e">
<path fill="#030202" opacity="0.62" d=" M 613.42 322.71 C 614.48 326.80 613.90 331.13 613.31 335.26 C 612.88 331.07 612.92 326.88 613.42 322.71 Z" />
</g>
<g id="#04040463">
<path fill="#040404" opacity="0.39" d=" M 375.16 352.05 C 376.83 352.05 380.18 352.05 381.85 352.05 C 381.04 353.85 375.95 353.85 375.16 352.05 Z" />
</g>
<g id="#0707070b">
<path fill="#070707" opacity="0.04" d=" M 1022.97 684.00 C 1023.10 677.25 1022.48 670.42 1024.00 663.79 L 1024.00 1024.00 L 1022.99 1024.00 C 1022.99 910.67 1023.03 797.33 1022.97 684.00 Z" />
</g>
<g id="#04040446">
<path fill="#040404" opacity="0.27" d=" M 574.03 756.00 L 574.99 756.00 C 574.98 776.99 575.07 797.98 574.96 818.97 L 574.00 819.02 C 574.02 798.01 573.95 777.00 574.03 756.00 Z" />
</g>
<g id="#000000f1">
<path fill="#000000" opacity="0.95" d=" M 448.29 770.75 C 449.82 787.77 448.66 804.92 448.97 822.00 L 448.01 822.00 C 448.12 804.91 447.66 787.82 448.29 770.75 Z" />
</g>
</svg>
